img/icons/documentRemark.svg

<svg width="32" height="32" viewBox="0 0 32 32" fill="none" xmlns="http://www.w3.org/2000/svg">
<path fill-rule="evenodd" clip-rule="evenodd" d="M11.3688 8.00534C11.343 8.01063 11.2163 8.03203 11.0872 8.05293C9.7717 8.26584 8.60078 9.28111 8.18284 10.5713C7.99619 11.1474 8.00495 10.8799 8.00495 16C8.00495 21.1095 7.99672 20.8542 8.17943 21.4184C8.48425 22.3596 9.17902 23.163 10.081 23.6172C10.3464 23.7509 10.7565 23.8894 11.0716 23.9518C11.3968 24.0162 19.4156 24.016 19.7395 23.9516C20.2178 23.8564 20.6946 23.6584 21.1049 23.3843C21.3801 23.2005 23.1538 21.4326 23.3565 21.1401C23.6481 20.7191 23.8523 20.2386 23.9516 19.7394C24.016 19.4155 24.0162 11.3967 23.9518 11.0715C23.6549 9.57288 22.5735 8.44821 21.0694 8.07377C20.805 8.00797 20.7745 8.00753 16.1096 8.00165C13.528 7.99842 11.3947 8.00008 11.3688 8.00534ZM20.8508 9.30928C21.36 9.46339 21.7131 9.66538 22.0253 9.98118C22.2447 10.2031 22.4818 10.5575 22.572 10.7986C22.754 11.2851 22.7419 11.0115 22.7517 14.8786L22.7607 18.4353L21.6725 18.4484C20.6739 18.4605 20.5637 18.4672 20.334 18.5301C19.4447 18.7735 18.7735 19.4447 18.5301 20.334C18.4672 20.5637 18.4605 20.6739 18.4484 21.6725L18.4353 22.7607L14.8786 22.7517C11.0115 22.7419 11.2851 22.754 10.7986 22.5719C10.2441 22.3645 9.63589 21.7562 9.42792 21.201C9.24489 20.7124 9.25663 21.069 9.25663 16C9.25663 10.9311 9.24489 11.2877 9.42792 10.7991C9.64537 10.2186 10.253 9.62842 10.8628 9.40541C11.313 9.24075 11.1406 9.24585 16.0783 9.25164C20.2746 9.25658 20.6934 9.26162 20.8508 9.30928ZM12.0952 11.7168C11.9471 11.7598 11.7548 11.9648 11.7115 12.1257C11.6366 12.4039 11.7479 12.6963 11.9848 12.8435L12.1042 12.9178H16.0001H19.8959L20.0154 12.8435C20.0811 12.8027 20.1726 12.7122 20.2188 12.6424C20.2887 12.5367 20.3027 12.4808 20.3027 12.3076C20.3027 12.1344 20.2887 12.0784 20.2188 11.9728C20.1726 11.903 20.0811 11.8125 20.0154 11.7716L19.8959 11.6974L16.047 11.6921C13.6743 11.6889 12.1586 11.6984 12.0952 11.7168ZM12.0952 15.4093C11.9471 15.4523 11.7548 15.6573 11.7115 15.8181C11.6366 16.0963 11.7479 16.3887 11.9848 16.536L12.1042 16.6102H16.0001H19.8959L20.0154 16.536C20.0811 16.4951 20.1726 16.4046 20.2188 16.3349C20.2887 16.2292 20.3027 16.1733 20.3027 16C20.3027 15.8268 20.2887 15.7709 20.2188 15.6652C20.1726 15.5955 20.0811 15.5049 20.0154 15.4641L19.8959 15.3899L16.047 15.3846C13.6743 15.3814 12.1586 15.3908 12.0952 15.4093ZM12.0952 19.1015C11.947 19.1449 11.7548 19.3499 11.7115 19.5106C11.6366 19.7888 11.7479 20.0812 11.9848 20.2284L12.1042 20.3027H14.1561H16.208L16.3349 20.2187C16.5302 20.0895 16.6103 19.9365 16.6103 19.6925C16.6103 19.4485 16.5302 19.2955 16.3349 19.1663L16.2081 19.0823L14.2031 19.0769C12.9928 19.0736 12.1573 19.0833 12.0952 19.1015ZM22.6515 19.7786C22.6132 19.9394 22.4244 20.302 22.281 20.4905C22.0939 20.7363 20.5963 22.2191 20.4038 22.3492C20.2376 22.4615 19.9107 22.6195 19.7786 22.6513L19.6925 22.672V21.7982C19.6925 21.3015 19.7072 20.8448 19.7266 20.74C19.8175 20.2483 20.2097 19.8409 20.6939 19.7353C20.8036 19.7113 21.1931 19.6968 21.769 19.6951L22.6721 19.6925L22.6515 19.7786Z" fill="#8C8D92"/>
</svg>

<svg width="32" height="32" fill="none" xmlns="http://www.w3.org/2000/svg"><path fill-rule="evenodd" clip-rule="evenodd" d="M11.369 8.005c-.026.006-.153.027-.282.048-1.315.213-2.486 1.228-2.904 2.518-.187.576-.178.309-.178 5.429 0 5.11-.008 4.854.174 5.418.305.942 1 1.745 1.902 2.2.265.133.676.271.99.334.326.064 8.345.064 8.668 0a3.845 3.845 0 0 0 1.366-.568c.275-.183 2.049-1.951 2.252-2.244a3.77 3.77 0 0 0 .595-1.4c.064-.324.064-8.343 0-8.668-.297-1.5-1.379-2.624-2.883-2.998-.264-.066-.294-.066-4.96-.072a598.05 598.05 0 0 0-4.74.003ZM20.85 9.31c.509.154.862.356 1.174.672.22.222.457.576.547.818.182.486.17.213.18 4.08l.009 3.556-1.088.013c-1 .012-1.11.02-1.339.082-.89.243-1.56.915-1.804 1.804-.063.23-.07.34-.082 1.338l-.013 1.089-3.556-.01c-3.867-.01-3.594.003-4.08-.18-.555-.207-1.163-.815-1.371-1.37-.183-.489-.171-.132-.171-5.201s-.012-4.712.17-5.2c.218-.581.826-1.172 1.436-1.395.45-.164.278-.16 5.215-.153 4.197.005 4.615.01 4.773.057Zm-8.756 2.408c-.148.043-.34.248-.384.409a.645.645 0 0 0 .274.718l.12.074h7.791l.12-.074a.8.8 0 0 0 .203-.202c.07-.105.084-.161.084-.334 0-.174-.014-.23-.084-.335a.803.803 0 0 0-.204-.201l-.12-.075-3.848-.005c-2.373-.003-3.888.006-3.952.025Zm0 3.692c-.148.043-.34.248-.384.41a.645.645 0 0 0 .274.717l.12.074h7.791l.12-.074a.804.804 0 0 0 .203-.201c.07-.106.084-.162.084-.335 0-.173-.014-.23-.084-.335a.802.802 0 0 0-.204-.2l-.12-.075-3.848-.005c-2.373-.004-3.888.006-3.952.024Zm0 3.693c-.148.043-.34.248-.384.409a.645.645 0 0 0 .274.717l.12.075h4.103l.127-.084c.195-.13.275-.283.275-.527 0-.244-.08-.396-.275-.526l-.127-.084-2.005-.005c-1.21-.003-2.046.006-2.108.024Zm10.556.677c-.038.16-.227.523-.37.712-.187.245-1.685 1.728-1.877 1.858a2.76 2.76 0 0 1-.625.302l-.087.021v-.874c0-.496.015-.953.035-1.058.09-.492.483-.9.967-1.005.11-.024.5-.038 1.075-.04l.903-.003-.02.087Z" fill="#8C8D92"/></svg>
